X: 10
M:6/8
L:1/8
Q:120
K:Gm
|: GGG e2 e| dB2 c2 B | G B2dcd |e G2 F3| GBB d>cB| cef/2e/2 dec| BGE F2 F| G2 _A BG2 :|

